X:165
T:Brig o' Tilt, the
K:D
M:C
L:1/8
A|"D"FD F/2G/2A d2 A-G|"D"FD F/2G/2A "A7"GEEG|"D"FD F/2G/2A d2 A-G|"D"df"A"eg "D"fdd:||!
g|"D"fdad bdad|"D"fdaf "A7"geeg|"D"fdad bdad|"D"geag fddg|!
"D"fdad bdad|"D"fdaf "A7"geeg|"D"fdad "A"edcB|"D"AB"A"de "D"fdd||
% <A name="D1X166">
